X:112
T:Life Like  a Sea in Constant Motion. LIT.112
M:4/4
Q:1/4=160
L:1/8
B:Wm. Litten MS, 1802
Z:Village Music Project 2017 Anne Wride
K:D
A2 Bc d2d2 | dcBA d2d2 | F2F2 G2G2 | A2A2 D4 |
A2 Bc d2d2 | dcBA e2e2 | d2c2 B2 cd | e2E2 A4 :|
|: d3c B2A2 | GF GA/B/ A4 | B3c d3e | fd af f2e2 |
gfge dcBA | gfge dcBA | B2c2 d2f2 | e2a2 d4 :|

